en/_assets/billing.svg

<svg width="24" height="24" viewBox="0 0 24 24" fill="none" xmlns="http://www.w3.org/2000/svg"><path d="M3 17.5C3 18.3438 3.65625 19 4.5 19H19.5C20.3125 19 21 18.3438 21 17.5V12H3V17.5ZM9 15.375C9 15.1875 9.15625 15 9.375 15H13.625C13.8125 15 14 15.1875 14 15.375V16.625C14 16.8438 13.8125 17 13.625 17H9.375C9.15625 17 9 16.8438 9 16.625V15.375ZM5 15.375C5 15.1875 5.15625 15 5.375 15H7.625C7.8125 15 8 15.1875 8 15.375V16.625C8 16.8438 7.8125 17 7.625 17H5.375C5.15625 17 5 16.8438 5 16.625V15.375ZM21 6.5C21 5.6875 20.3125 5 19.5 5H4.5C3.65625 5 3 5.6875 3 6.5V8H21V6.5Z" fill="currentColor"></path></svg>

<svg xmlns="http://www.w3.org/2000/svg" width="24" height="24" fill="none"><path fill="currentColor" d="M3 17.5c0 .844.656 1.5 1.5 1.5h15a1.5 1.5 0 0 0 1.5-1.5V12H3v5.5Zm6-2.125A.38.38 0 0 1 9.375 15h4.25c.188 0 .375.188.375.375v1.25a.38.38 0 0 1-.375.375h-4.25A.361.361 0 0 1 9 16.625v-1.25Zm-4 0A.38.38 0 0 1 5.375 15h2.25c.188 0 .375.188.375.375v1.25a.38.38 0 0 1-.375.375h-2.25A.361.361 0 0 1 5 16.625v-1.25ZM21 6.5c0-.813-.688-1.5-1.5-1.5h-15A1.5 1.5 0 0 0 3 6.5V8h18V6.5Z"/></svg>
